src/lib/packages/icons/src/assets/line/trend-up-circle.svg

<svg width="24" height="24" viewBox="0 0 24 24" fill="none" xmlns="http://www.w3.org/2000/svg">
<path d="M12.75 14V17C12.75 17.414 12.414 17.75 12 17.75C11.586 17.75 11.25 17.414 11.25 17V14C11.25 13.586 11.586 13.25 12 13.25C12.414 13.25 12.75 13.586 12.75 14ZM16 11.25C15.586 11.25 15.25 11.586 15.25 12V17C15.25 17.414 15.586 17.75 16 17.75C16.414 17.75 16.75 17.414 16.75 17V12C16.75 11.586 16.414 11.25 16 11.25ZM8 14.75C7.586 14.75 7.25 15.086 7.25 15.5V17C7.25 17.414 7.586 17.75 8 17.75C8.414 17.75 8.75 17.414 8.75 17V15.5C8.75 15.086 8.414 14.75 8 14.75ZM16.287 6.30798C16.195 6.26998 16.098 6.25 16 6.25H13.8C13.386 6.25 13.05 6.586 13.05 7C13.05 7.414 13.386 7.75 13.8 7.75H14.19L12.391 9.54895L11.112 8.27002C10.527 7.68602 9.57499 7.68502 8.98999 8.27002L7.46997 9.79004C7.17697 10.083 7.17697 10.558 7.46997 10.851C7.61597 10.997 7.808 11.071 8 11.071C8.192 11.071 8.38403 10.998 8.53003 10.851L10.05 9.33105L11.329 10.61C11.895 11.177 12.884 11.178 13.451 10.61L15.25 8.81104V9.20105C15.25 9.61505 15.586 9.95105 16 9.95105C16.414 9.95105 16.75 9.61505 16.75 9.20105V7.00098C16.75 6.90298 16.73 6.80599 16.692 6.71399C16.616 6.52999 16.47 6.38398 16.287 6.30798ZM22.75 12C22.75 17.928 17.928 22.75 12 22.75C6.072 22.75 1.25 17.928 1.25 12C1.25 6.072 6.072 1.25 12 1.25C17.928 1.25 22.75 6.072 22.75 12ZM21.25 12C21.25 6.899 17.101 2.75 12 2.75C6.899 2.75 2.75 6.899 2.75 12C2.75 17.101 6.899 21.25 12 21.25C17.101 21.25 21.25 17.101 21.25 12Z" fill="currentColor"/>
</svg>

<svg xmlns="http://www.w3.org/2000/svg" width="24" height="24" fill="none"><path fill="currentColor" d="M12.75 14v3a.75.75 0 0 1-1.5 0v-3a.75.75 0 0 1 1.5 0ZM16 11.25a.75.75 0 0 0-.75.75v5a.75.75 0 0 0 1.5 0v-5a.75.75 0 0 0-.75-.75Zm-8 3.5a.75.75 0 0 0-.75.75V17a.75.75 0 0 0 1.5 0v-1.5a.75.75 0 0 0-.75-.75Zm8.287-8.442A.75.75 0 0 0 16 6.25h-2.2a.75.75 0 0 0 0 1.5h.39l-1.799 1.799-1.279-1.279a1.503 1.503 0 0 0-2.122 0L7.47 9.79a.75.75 0 0 0 1.06 1.061l1.52-1.52 1.279 1.279c.566.567 1.555.568 2.122 0l1.799-1.799v.39a.75.75 0 0 0 1.5 0v-2.2a.75.75 0 0 0-.463-.693ZM22.75 12c0 5.928-4.822 10.75-10.75 10.75S1.25 17.928 1.25 12 6.072 1.25 12 1.25 22.75 6.072 22.75 12Zm-1.5 0c0-5.101-4.149-9.25-9.25-9.25S2.75 6.899 2.75 12s4.149 9.25 9.25 9.25 9.25-4.149 9.25-9.25Z"/></svg>
